ukui-icon-theme/64x64/devices/battery.svg

<?xml version="1.0" encoding="iso-8859-1"?>
<!-- Generator: Adobe Illustrator 21.0.0, SVG Export Plug-In . SVG Version: 6.00 Build 0)  -->
<svg version="1.1" id="&#x5176;&#x4ED6;" xmlns="http://www.w3.org/2000/svg" xmlns:xlink="http://www.w3.org/1999/xlink" x="0px"
	 y="0px" viewBox="0 0 64 64" style="enable-background:new 0 0 64 64;" xml:space="preserve">
<title>画板 21</title>
<g id="&#x7535;&#x6C60;">
	<path style="opacity:0.2;enable-background:new    ;" d="M14.15,62V5.51h9.13V4.27c0.115-1.37,1.319-2.388,2.69-2.273
		C25.98,1.998,25.99,1.999,26,2h12c1.364-0.12,2.568,0.888,2.688,2.252c0.001,0.006,0.001,0.012,0.001,0.018v1.24h9.13V62H14.15z"/>
	<path style="opacity:0.1;enable-background:new    ;" d="M14.15,64V5.51h9.13V5.27c0.105-1.914,1.742-3.379,3.655-3.274
		C26.957,1.997,26.978,1.998,27,2h12c1.912-0.124,3.564,1.325,3.688,3.237c0.001,0.011,0.001,0.022,0.002,0.033V5.5h9.13V64H14.15z"
		/>
	<path style="opacity:0.1;enable-background:new    ;" d="M15.15,63V6.51h9.13V5.27c0.115-1.37,1.319-2.388,2.69-2.273
		C26.98,2.998,26.99,2.999,27,3h12c1.364-0.12,2.568,0.888,2.688,2.252c0.001,0.006,0.001,0.012,0.001,0.018v1.24h9.13V63H15.15z"/>
	<path style="fill:#455A64;" d="M48.35,6.51h-8.64V4.27C39.71,3.56,39,3,38,3H26c-1,0-1.7,0.56-1.7,1.27V6.5h-9.15V61h33.7V6.51
		H48.35z"/>
	
		<linearGradient id="SVGID_1_" gradientUnits="userSpaceOnUse" x1="15.65" y1="6.54" x2="48.51" y2="6.54" gradientTransform="matrix(1 0 0 -1 0 66)">
		<stop  offset="0" style="stop-color:#ADC1C9"/>
		<stop  offset="1" style="stop-color:#6C91A3"/>
	</linearGradient>
	<rect x="15.65" y="58.41" style="fill:url(#SVGID_1_);" width="32.71" height="2.1"/>
	
		<linearGradient id="SVGID_2_" gradientUnits="userSpaceOnUse" x1="24.79" y1="60.67" x2="39.3" y2="60.67" gradientTransform="matrix(1 0 0 -1 0 66)">
		<stop  offset="0" style="stop-color:#CDE0E8"/>
		<stop  offset="1" style="stop-color:#90A4AE"/>
	</linearGradient>
	<path style="fill:url(#SVGID_2_);" d="M38,3.49H26c-0.66,0-1.21,0.35-1.21,0.78v2.9h14.43v-2.9C39.22,3.84,38.68,3.49,38,3.49z"/>
	
		<linearGradient id="SVGID_3_" gradientUnits="userSpaceOnUse" x1="24.79" y1="60.18" x2="39.3" y2="60.18" gradientTransform="matrix(1 0 0 -1 0 66)">
		<stop  offset="0" style="stop-color:#ADC1C9"/>
		<stop  offset="1" style="stop-color:#6C91A3"/>
	</linearGradient>
	<path style="fill:url(#SVGID_3_);" d="M38,4H26c-0.66,0-1.21,0.35-1.21,0.78v2.86h14.43v-2.9C39.22,4.31,38.68,4,38,4z"/>
	
		<linearGradient id="SVGID_4_" gradientUnits="userSpaceOnUse" x1="15.65" y1="57.475" x2="48.51" y2="57.475" gradientTransform="matrix(1 0 0 -1 0 66)">
		<stop  offset="0" style="stop-color:#ADC1C9"/>
		<stop  offset="1" style="stop-color:#6C91A3"/>
	</linearGradient>
	<rect x="15.65" y="7" style="fill:url(#SVGID_4_);" width="32.71" height="3.05"/>
	
		<linearGradient id="SVGID_5_" gradientUnits="userSpaceOnUse" x1="16.3" y1="58.815" x2="47.71" y2="58.815" gradientTransform="matrix(1 0 0 -1 0 66)">
		<stop  offset="0" style="stop-color:#CDE0E8"/>
		<stop  offset="1" style="stop-color:#90A4AE"/>
	</linearGradient>
	<rect x="15.65" y="7" style="fill:url(#SVGID_5_);" width="32.71" height="0.37"/>
	
		<linearGradient id="SVGID_6_" gradientUnits="userSpaceOnUse" x1="32.005" y1="8.12" x2="32.005" y2="55.56" gradientTransform="matrix(1 0 0 -1 0 66)">
		<stop  offset="0.24" style="stop-color:#689F38"/>
		<stop  offset="0.94" style="stop-color:#8BC34A"/>
	</linearGradient>
	<rect x="15.65" y="10.27" style="fill:url(#SVGID_6_);" width="32.71" height="47.99"/>
	<rect x="21.91" y="6.99" style="opacity:0.24;fill:#FFFFFF;enable-background:new    ;" width="8.54" height="53.52"/>
	<rect x="27" y="3.49" style="opacity:0.24;fill:#FFFFFF;enable-background:new    ;" width="5.52" height="3.49"/>
	
		<linearGradient id="SVGID_7_" gradientUnits="userSpaceOnUse" x1="15.65" y1="7.91" x2="48.36" y2="7.91" gradientTransform="matrix(1 0 0 -1 0 66)">
		<stop  offset="0" style="stop-color:#DCE775"/>
		<stop  offset="1" style="stop-color:#AED581"/>
	</linearGradient>
	<rect x="15.65" y="57.92" style="fill:url(#SVGID_7_);" width="32.71" height="0.34"/>
	
		<linearGradient id="SVGID_8_" gradientUnits="userSpaceOnUse" x1="15.65" y1="7.55" x2="48.36" y2="7.55" gradientTransform="matrix(1 0 0 -1 0 66)">
		<stop  offset="0" style="stop-color:#F6F7F7"/>
		<stop  offset="0.12" style="stop-color:#DEDEDE"/>
		<stop  offset="0.24" style="stop-color:#F5F4F4"/>
		<stop  offset="0.56" style="stop-color:#F5F4F4"/>
		<stop  offset="0.61" style="stop-color:#E1E3DF"/>
		<stop  offset="0.88" style="stop-color:#9F9E9B"/>
		<stop  offset="0.92" style="stop-color:#CED1CD"/>
		<stop  offset="1" style="stop-color:#F6F7F7"/>
	</linearGradient>
	<rect x="15.65" y="58.28" style="fill:url(#SVGID_8_);" width="32.71" height="0.34"/>
	
		<linearGradient id="SVGID_9_" gradientUnits="userSpaceOnUse" x1="15.65" y1="7.55" x2="48.36" y2="7.55" gradientTransform="matrix(1 0 0 -1 0 66)">
		<stop  offset="0" style="stop-color:#CDE0E8"/>
		<stop  offset="1" style="stop-color:#90A4AE"/>
	</linearGradient>
	<rect x="15.65" y="58.28" style="fill:url(#SVGID_9_);" width="32.71" height="0.34"/>
	
		<linearGradient id="SVGID_10_" gradientUnits="userSpaceOnUse" x1="15.65" y1="55.78" x2="48.36" y2="55.78" gradientTransform="matrix(1 0 0 -1 0 66)">
		<stop  offset="0" style="stop-color:#90A4AE"/>
		<stop  offset="1" style="stop-color:#607D8B"/>
	</linearGradient>
	<rect x="15.65" y="10.05" style="fill:url(#SVGID_10_);" width="32.71" height="0.34"/>
	
		<linearGradient id="SVGID_11_" gradientUnits="userSpaceOnUse" x1="15.65" y1="55.48" x2="48.36" y2="55.48" gradientTransform="matrix(1 0 0 -1 0 66)">
		<stop  offset="0" style="stop-color:#DCE775"/>
		<stop  offset="1" style="stop-color:#AED581"/>
	</linearGradient>
	<rect x="15.65" y="10.35" style="fill:url(#SVGID_11_);" width="32.71" height="0.34"/>
	<g>
		<polygon style="fill:#33691E;" points="32.36,11.73 35.09,14.45 29.63,14.45 		"/>
		<polygon style="fill:#33691E;" points="31.76,16.62 32.96,16.62 32.96,19.46 35.8,19.46 35.8,20.66 32.96,20.66 32.96,23.49 
			31.76,23.49 31.76,20.66 28.92,20.66 28.92,19.46 31.76,19.46 		"/>
	</g>
	<polygon style="fill:#DCEDC8;" points="32.01,11.38 34.73,14.1 29.28,14.1 	"/>
	<polygon style="fill:#DCEDC8;" points="31.41,16.27 32.61,16.27 32.61,19.1 35.44,19.1 35.44,20.31 32.61,20.31 32.61,23.14 
		31.41,23.14 31.41,20.31 28.57,20.31 28.57,19.1 31.41,19.1 	"/>
</g>
</svg>

<svg id="其他" xmlns="http://www.w3.org/2000/svg" xmlns:xlink="http://www.w3.org/1999/xlink" viewBox="0 0 64 64"><defs><style>.cls-1{opacity:0.2;}.cls-2{opacity:0.1;}.cls-3{fill:#455a64;}.cls-4{fill:url(#linear-gradient);}.cls-17,.cls-18,.cls-5,.cls-6{fill-rule:evenodd;}.cls-5{fill:url(#linear-gradient-2);}.cls-6{fill:url(#linear-gradient-3);}.cls-7{fill:url(#linear-gradient-4);}.cls-8{fill:url(#linear-gradient-5);}.cls-9{fill:url(#linear-gradient-6);}.cls-10{fill:#fff;opacity:0.24;}.cls-10,.cls-16,.cls-17,.cls-18{isolation:isolate;}.cls-11{fill:url(#linear-gradient-7);}.cls-12{fill:url(#GradientFill_77);}.cls-13{fill:url(#linear-gradient-8);}.cls-14{fill:url(#linear-gradient-9);}.cls-15{fill:url(#linear-gradient-10);}.cls-17{fill:#33691e;}.cls-18{fill:#dcedc8;}</style><linearGradient id="linear-gradient" x1="15.65" y1="59.46" x2="48.51" y2="59.46" gradientUnits="userSpaceOnUse"><stop offset="0" stop-color="#adc1c9"/><stop offset="1" stop-color="#6c91a3"/></linearGradient><linearGradient id="linear-gradient-2" x1="24.78" y1="5.33" x2="39.29" y2="5.33" gradientUnits="userSpaceOnUse"><stop offset="0" stop-color="#cde0e8"/><stop offset="1" stop-color="#90a4ae"/></linearGradient><linearGradient id="linear-gradient-3" x1="24.78" y1="5.8" x2="39.29" y2="5.8" xlink:href="#linear-gradient"/><linearGradient id="linear-gradient-4" x1="15.65" y1="8.52" x2="48.51" y2="8.52" xlink:href="#linear-gradient"/><linearGradient id="linear-gradient-5" x1="16.3" y1="7.19" x2="47.71" y2="7.19" xlink:href="#linear-gradient-2"/><linearGradient id="linear-gradient-6" x1="32" y1="57.88" x2="32" y2="10.44" gradientUnits="userSpaceOnUse"><stop offset="0.24" stop-color="#689f38"/><stop offset="0.94" stop-color="#8bc34a"/></linearGradient><linearGradient id="linear-gradient-7" x1="15.65" y1="58.09" x2="48.35" y2="58.09" gradientUnits="userSpaceOnUse"><stop offset="0" stop-color="#dce775"/><stop offset="1" stop-color="#aed581"/></linearGradient><linearGradient id="GradientFill_77" x1="15.65" y1="58.45" x2="48.35" y2="58.45" gradientUnits="userSpaceOnUse"><stop offset="0" stop-color="#f6f7f7"/><stop offset="0.12" stop-color="#dedede"/><stop offset="0.24" stop-color="#f5f4f4"/><stop offset="0.56" stop-color="#f5f4f4"/><stop offset="0.61" stop-color="#e1e3df"/><stop offset="0.88" stop-color="#9f9e9b"/><stop offset="0.92" stop-color="#ced1cd"/><stop offset="1" stop-color="#f6f7f7"/></linearGradient><linearGradient id="linear-gradient-8" x1="15.65" y1="58.45" x2="48.35" y2="58.45" xlink:href="#linear-gradient-2"/><linearGradient id="linear-gradient-9" x1="15.65" y1="10.22" x2="48.35" y2="10.22" gradientUnits="userSpaceOnUse"><stop offset="0" stop-color="#90a4ae"/><stop offset="1" stop-color="#607d8b"/></linearGradient><linearGradient id="linear-gradient-10" x1="15.65" y1="10.52" x2="48.35" y2="10.52" xlink:href="#linear-gradient-7"/></defs><title>画板 21</title><g id="电池"><path class="cls-1" d="M14.15,62V5.51h9.13V4.27A2.49,2.49,0,0,1,26,2H38a2.48,2.48,0,0,1,2.69,2.27V5.51h9.13V62Z"/><path class="cls-2" d="M14.15,64V5.51h9.13V5.27A3.47,3.47,0,0,1,27,2H39a3.47,3.47,0,0,1,3.69,3.27v.23h9.13V64Z"/><path class="cls-2" d="M15.15,63V6.51h9.13V5.27A2.49,2.49,0,0,1,27,3H39a2.48,2.48,0,0,1,2.69,2.27V6.51h9.13V63Z"/><path class="cls-3" d="M48.35,6.51H39.71V4.27C39.71,3.56,39,3,38,3H26c-1,0-1.7.56-1.7,1.27V6.5H15.15V61H48.85V6.51Z"/><rect class="cls-4" x="15.65" y="58.41" width="32.71" height="2.1"/><path class="cls-5" d="M38,3.49H26c-.66,0-1.21.35-1.21.78V7.17H39.22V4.27C39.22,3.84,38.68,3.49,38,3.49Z"/><path class="cls-6" d="M38,4H26c-.66,0-1.21.35-1.21.78V7.64H39.22V4.74C39.22,4.31,38.68,4,38,4Z"/><rect class="cls-7" x="15.65" y="7" width="32.71" height="3.05"/><rect class="cls-8" x="15.65" y="7" width="32.71" height="0.37"/><rect class="cls-9" x="15.65" y="10.27" width="32.71" height="47.99"/><rect class="cls-10" x="21.91" y="6.99" width="8.54" height="53.52"/><rect class="cls-10" x="27" y="3.49" width="5.52" height="3.49"/><rect class="cls-11" x="15.65" y="57.92" width="32.71" height="0.34"/><rect class="cls-12" x="15.65" y="58.28" width="32.71" height="0.34"/><rect class="cls-13" x="15.65" y="58.28" width="32.71" height="0.34"/><rect class="cls-14" x="15.65" y="10.05" width="32.71" height="0.34"/><rect class="cls-15" x="15.65" y="10.35" width="32.71" height="0.34"/><g class="cls-16"><polygon class="cls-17" points="32.36 11.73 35.09 14.45 29.63 14.45 32.36 11.73"/><polygon class="cls-17" points="31.76 16.62 32.96 16.62 32.96 19.46 35.8 19.46 35.8 20.66 32.96 20.66 32.96 23.49 31.76 23.49 31.76 20.66 28.92 20.66 28.92 19.46 31.76 19.46 31.76 16.62"/></g><polygon class="cls-18" points="32.01 11.38 34.73 14.1 29.28 14.1 32.01 11.38"/><polygon class="cls-18" points="31.41 16.27 32.61 16.27 32.61 19.1 35.44 19.1 35.44 20.31 32.61 20.31 32.61 23.14 31.41 23.14 31.41 20.31 28.57 20.31 28.57 19.1 31.41 19.1 31.41 16.27"/></g></svg>
